X:1
T:The Tobermory Ferry
M:6/8
L:1/8
C:Pat Simmonds
R:Jig
P:2
N:The Tobermory Ferry runs from Tobermory to Manatoulin Island in Lake Huron. The island is the spiritual heart for many of North America's First Nation peoples.
K:Am
DEG A2A|BAG A2B|cBA cde|gag edB|~c3 ~d3|edc Bce|edc BAG|1 EGB A3:||2 EGB A2B||:!~c3 ecc|gcc ecc|~B3 dBd|ded dBG|~c3 ecc|gcc Bcd|edc BAG|1 EGB A2B:||2 EGB A3||

